X: 14
T:Rond de Saint-Vincent
M:4/4
L:1/8
Q:1/4=100
C:Yves BELOTTEAU
K:G
P: 1
|:EA/2B/2cB/2A/2 GA/2B/2A2|EE/2F/2GF/2E/2 DDE2:|!
|:EA/2B/2cB/2c/2 ecB2|1dc/2B/2AA/2B/2 AGE2:|2A/2B/2c/2d/2cB/2A/2 GA/2B/2
A2|!
P: 2
|:dc/2B/2AA GBAA|dc/2B/2AA G=FE2:|
|:cc/2d/2ee dcB2|c/2B/2c/2d/2ee d/2e/2d/2c/2B2:|
